X: 10843
T: CORPORAL CASEY
O: Irish air.
N: A version of Irish Washerwoman.
P: The bars marked * may be omitted at pleasure.
Q: "Sprightly Jig time."
%R: jig
B: W. Hamilton "Universal Tune-Book" Vol. 1 Glasgow 1844 p.84 #3
S: http://imslp.org/wiki/Hamilton's_Universal_Tune-Book_(Various)
Z: 2016 John Chambers <jc:trillian.mit.edu>
M: 6/8
L: 1/8
K: G
%%stretchstaff 0
% - - - - - - - - - - - - - - - - - - - - - - - - -
d/c/ |\
BGG DGG | BGG dcB |\
cAA EAA | cAA edc |\
BGG DGG | BGG BHdd |\
e>fg d(c/B/)(A/G/) | dGG B>cd |\
"_*"g6 |
BGG DGG | BGG (dc)B |\
eAA EAA | cAA eHdc |\
gee fdd | ecc gd2 |\
(B3 "_*"A2)G |\
efg d(c/B/)(A/G/) | dGG B/c/d |]
% - - - - - - - - - - - - - - - - - - - - - - - - -

%%sep 1 1 500
%%sep 1 1 500

